vice/share/icons/Adwaita/scalable/status/network-cellular-3g-symbolic.svg

<?xml version="1.0" encoding="UTF-8"?>
<svg height="16px" viewBox="0 0 16 16" width="16px" xmlns="http://www.w3.org/2000/svg">
    <path d="m 3 0 c -1.660156 0 -3 1.339844 -3 3 v 10 c 0 1.660156 1.339844 3 3 3 h 10 c 1.660156 0 3 -1.339844 3 -3 v -10 c 0 -1.660156 -1.339844 -3 -3 -3 z m -1 3 h 4 c 0.726562 0.019531 1.195312 0.78125 0.875 1.4375 l -1.375 2.78125 c 0.355469 0.117188 0.75 0.195312 0.96875 0.4375 c 0.332031 0.367188 0.53125 0.808594 0.53125 1.34375 v 2 c 0 1.113281 -0.90625 2 -2 2 h -3 v -2 h 3 v -2 h -1 c -0.726562 -0.019531 -1.195312 -0.78125 -0.875 -1.4375 l 1.25 -2.5625 h -2.375 z m 8 0 h 2 c 0.832031 0 1.523438 0.5625 1.769531 1.050781 c 0.246094 0.492188 0.230469 0.949219 0.230469 0.949219 v 1 h -2 v -1 h -2 v 6 h 2 v -2 h -1 v -2 h 3 v 4 s 0.015625 0.457031 -0.230469 0.949219 c -0.246093 0.488281 -0.9375 1.050781 -1.769531 1.050781 h -2 s -0.457031 0.015625 -0.949219 -0.230469 c -0.488281 -0.246093 -1.050781 -0.9375 -1.050781 -1.769531 v -6 s -0.015625 -0.457031 0.230469 -0.949219 c 0.246093 -0.488281 0.9375 -1.050781 1.769531 -1.050781 z m 0 0" fill="#2e3436"/>
</svg>

<svg xmlns="http://www.w3.org/2000/svg" width="16" height="16"><path d="M2.063 0A2.048 2.048 0 000 2.063v11.874C0 15.088.912 16 2.063 16h11.874A2.048 2.048 0 0016 13.937V2.063A2.048 2.048 0 0013.937 0zM2 3h4a1 1 0 01.875 1.438L5.5 7.217c.355.116.75.196.969.438C6.8 8.022 7 8.466 7 9v2c0 1.112-.907 2-2 2H2v-2h3V9H4a1 1 0 01-.875-1.438L4.375 5H2zm8 0h2c.833 0 1.525.564 1.77 1.053.244.488.23.947.23.947v1h-2V5h-2v6h2V9h-1V7h3v4s.014.459-.23.947C13.525 12.436 12.833 13 12 13h-2s-.459.014-.947-.23C8.564 12.525 8 11.833 8 11V5s-.014-.459.23-.947C8.475 3.564 9.167 3 10 3z" style="marker:none" color="#bebebe" overflow="visible" fill="#2e3436"/></svg>
